X:29
T:Bridal Chorus
C:Wagner
N:TablEdited by John G Gardinsky
L:1/8
Q:1/4=120
M:4/4
K:Bb
"Intro"f2 f3/2f/ f2 f2 | f4 f4 | "Band Starts Here""Bb"F2 B3/2B/ B4 | "Bb"F2 "F"c3/2A/ "Bb"B4 | 
"Bb"F2 B3/2e/ "Eb"e2 d3/2c/ | "Bb"B2 A3/2B/ "F"c4 | "Bb"F2 B3/2B/ B4 | "Bb"F2 "F"c3/2A/ "Bb"B4 | 
"Bb"F2 B3/2d/ "Dm"f2 d3/2B/ | "Cm"G2 c3/2d/ "Bb"B4 | "Eb"e2 dc "Cm"G2 G2 | "F"A2 B3/2c/ c4 | 
"Eb"e2 dc "Cm"G2 G2 | "G"G2 A3/2=B/ B4 | d2 =ed c2 =B2 | "D7"d_d c=B B2 A2 | "G"d2 =e_g "Em"=g2 =B2 | 
"G"=B2 A3/2G/ "D7"=e2 d2 | "Gm"d2 de "Bb"f3d | "F7"f=e _ec "Bb"d4 | "Bb"d2 d=e "F"f3_e | 
"Dm"d2 d/_d/=B/d/ "D7"=d4 | "Bb"F2 B3/2B/ B4 | "Bb"F2 "F"c3/2A/ "Bb"B4 | "Bb"F2 B3/2d/ "Dm"f2 d3/2B/ | 
"Cm"g4 "F7"fe d3/2c/ | "Bb"B8 | 
 

